!!!!SEGMENT: pl-wtm--r-1645-1_stefani-jozef--oj-gdybysmy-tylko-mieli-co-maja-w-niebie.krn
!!!cenid: 18xx:2042
!!!COM: Stefani, Józef
!!!COM-rismid: pe30024097
!!!CDT: 1800/04/16-1876/03/19
!!!CNT: Polish
!!!OTL: Oj, gdybyśmy tylko mieli, co mają w niebie
!!!PDT:
!!!AGN: Secular
!!!SMS-siglum: PL-Wtm
!!!SMS-shelfmark: R 1645/1
!!!SMS-shelfwork: W
!!!SMS-variant: Partytura PL-Wtm R1645/1:0008-0009
!!!SMS-altvar: Tenore 1mo Solo PL-Wtm R1645/1:0002
!!!NIFC-rismid: 1001114433
!!!URL-scan: http://repozytorium.nifc.pl/skany/pl-wtm-nut--r1645-1-2
!!!ONB-nifc: UWAGA: na podstawie partytury; proszę uzupełnić pola SMS
!!!OMD: Andantino.
**kern	**text	**text	**kern	**kern	**kern	**text	**kern	**text	**text	**dynam
*part5	*part5	*part5	*part4	*part3	*part2	*part2	*part1	*part1	*part1	*part1
*staff5	*staff5	*staff5	*staff4	*staff3	*staff2	*staff2	*staff1	*staff1	*staff1	*
*>[A,A,B]	*>[A,A,B]	*>[A,A,B]	*>[A,A,B]	*>[A,A,B]	*>[A,A,B]	*>[A,A,B]	*>[A,A,B]	*>[A,A,B]	*>[A,A,B]	*>[A,A,B]
*>A	*>A	*>A	*>A	*>A	*>A	*>A	*>A	*>A	*>A	*>A
*Iempty	*	*	*Iempty	*Iempty	*Iempty	*	*Itenor	*	*	*
*	*	*	*I"2o.	*I"1o Basſo	*I"2o.	*	*I"1o Tenore	*	*	*
*	*	*	*clefF4	*clefF4	*clefC4	*	*clefC4	*	*	*
*	*	*	*k[b-]	*k[b-]	*k[b-]	*	*k[b-]	*	*	*
*	*	*	*F:	*F:	*F:	*	*F:	*	*	*
*	*	*	*M6/8	*M6/8	*M6/8	*	*M6/8	*	*	*
*all\right	*	*	*all\right	*all\right	*all\right	*	*all\right	*	*	*
=1	=1	=1	=1	=1	=1	=1	=1	=1	=1	=1
!	!	!	!	!	!	!	!LO:TX:t=P:problem:skreślona nuta	!	!	!LO:DY:rj
!	!	!	!	!	!	!	!LO:TX:t=[segno]:problem:znak segno przed nutą	!	!	!
2.ryy	.	.	4F\	4F\	4A\	.	4f\	Oj	Oj	f
.	.	.	8F\	8F\	8A\	.	8c\	gdy-	gdy-	.
.	.	.	.	.	.	.	8qe/	.	.	.
.	.	.	4F\	4F\	4A\	.	4d\	-byś-	-byś-	.
.	.	.	8F\	8F\	8A\	.	8c\	-my	-my	.
=2	=2	=2	=2	=2	=2	=2	=2	=2	=2	=2
!	!	!	!	!	!LO:TX:t=P:problem:skreślona nuta	!	!LO:TX:t=P:problem:skreślona nuta	!	!	!
2.ryy	.	.	4F\	4F\	4F\	.	4A\	tyl-	moc	.
.	.	.	8F\	8F\	8A\	.	8c\	-ko	tę	.
.	.	.	4F\	4G#X\	4Bn\	.	4d\	mie-	mie-	.
!	!	!	!	!LO:TX:t=P:problem:skreślona nuta	!LO:TX:t=P:problem:skreślona nuta	!	!	!	!	!
.	.	.	8F\	8A\	8c\	.	8c\	-li	-li	.
=3	=3	=3	=3	=3	=3	=3	=3	=3	=3	=3
!	!	!	!LO:TX:t=P:problem:skreślone nuty w całym takcie	!	!	!	!	!	!	!LO:DY:rj
2.ryy	.	.	8C\	8Gn\	8B-X\	To	8c\	Co	[[To	p >
.	.	.	8C\	8G\	8B-\	byś-	8c\	ma-	for-	.
.	.	.	8C\	8F\	8A\	-my	8c\	-ją	-tu-	.
.	.	.	8C\	8E\	8G\	for-	8c\	w_Nie-	-nę	]
.	.	.	8C\	8F\	8A\	-tu-	8c\	-bie	by-	.
.	.	.	8C\	8D\	8F\	-nę	8c\	A-	-śmy]]	.
!!LO:LB:g=original
=4	=4	=4	=4	=4	=4	=4	=4	=4	=4	=4
2.ryy	.	.	4.C/	4.E\	4.G/	.	4c\	-nie-	wzię-	.
.	.	.	.	.	.	.	16e\LL	.	.	.
.	.	.	.	.	.	.	16g\JJ	.	.	.
.	.	.	4.C/	4.E\	4.G/	.	4.c\	-li	-li	.
=5	=5	=5	=5	=5	=5	=5	=5	=5	=5	=5
*	*	*	*^	*^	*^	*	*^	*	*	*
!	!	!	!	!	!	!	!	!	!	!	!LO:TX:t=P:problem:skreślona nuta	!	!	!LO:DY:rj
2.ryy	.	.	4D/	8D\	4D/	8D\	4F/	8F\	.	8A/	4A\	nie-	za	f
*	*	*	*	*cue	*	*cue	*	*cue	*	*cue	*	*	*	*
.	.	.	.	8D\	.	8D\	.	8F\	.	8A/	.	.	łeb	.
*	*	*	*	*Xcue	*	*Xcue	*	*Xcue	*	*Xcue	*	*	*	*
.	.	.	8D\	8ryy	8D/	8D\	8F/	8F\	.	8A/	8A\	-śmier-	za	.
.	.	.	.	.	.	.	.	.	.	(8qc/	.	.	.	.
.	.	.	4D\	4ryy	4D\	4ryy	4F/	4ryy	.	4B-\)	4ryy	-tel-	rę-	.
.	.	.	8D\	8ryy	8D\	8ryy	8F/	8ryy	.	8A\	8ryy	-ność	-ce	.
*	*	*	*	*	*	*	*	*	*	*v	*v	*	*	*
=6	=6	=6	=6	=6	=6	=6	=6	=6	=6	=6	=6	=6	=6
2.ryy	.	.	4D/	(4D\	4D/	(4D\	4F/	(4F\	.	4f\	ży-	i	.
!	!	!	!	!	!	!	!	!	!	!LO:TX:t=P:problem:skreślona nuta	!	!	!
.	.	.	8E/	8E\)	8E/	8E\)	8G/	8G\)	.	8c#X\	-cie	.	.
.	.	.	4F\	4ryy	4F\	4ryy	4A/	4ryy	.	4d\	czy-	no-	.
.	.	.	8F\	8ryy	8F\	8ryy	8A/	8ryy	.	8A\	-ste	-gi	.
*	*	*	*v	*v	*	*	*	*	*	*	*	*	*
*	*	*	*	*v	*v	*	*	*	*	*	*	*
=7	=7	=7	=7	=7	=7	=7	=7	=7	=7	=7	=7
!	!	!	!	!	!	!	!	!	!	!	!LO:DY:rj
2.ryy	.	.	8G\	8G\	8G/	4ryy	.	8G\	I	By	p
.	.	.	8E\	8E\	8G/	.	.	8c\	zdro-	ci	.
.	.	.	.	.	.	.	.	.	.	.	<
!	!	!	!	!LO:TX:t=P:problem:nuty skreślone / dopisane ołówkiem	!	!	!	!	!	!	!
.	.	.	8BBn/	8G\	8G/	8ryy	.	8d\	-wie	ią	.
!	!	!	!	!	!	!	!	!LO:TX:t=P:problem:skreślony łuk	!	!	!
.	.	.	(8C/L	8G\	8G/	4G\	.	(8e\L	to	dać	.
.	.	.	8FF/J)	8G\	8G/	.	.	8f\J)	wie-	Ja-	[ >
.	.	.	8GG/	8F\	8G/	8ryy	.	8Bn\	-ku-	-siu	]
*	*	*	*	*	*v	*v	*	*	*	*	*
=8	=8	=8	=8	=8	=8	=8	=8	=8	=8	=8
2.ryy	.	.	4.C/	4.E\	4.G/	.	4c\	-i-	dro-	.
!	!	!	!	!	!	!	!LO:TX:t=P:problem:skreślona nuta	!	!	!
.	.	.	.	.	.	.	16e\LL	.	.	.
.	.	.	.	.	.	.	16d\JJ	.	.	.
.	.	.	4C/	4E\	4G/	.	4c\	-ste.	-gi	.
.	.	.	8r	8r	8r	.	8r	.	.	.
!!LO:LB:g=original
=9	=9	=9	=9	=9	=9	=9	=9	=9	=9	=9
!	!	!	!LO:TX:t=P:problem:skreślone nuty w całym takcie	!	!	!	!	!	!	!LO:DY:rj
2.ryy	.	.	4AA/	4A\	4c\	.	4c\	Każ-	Byś	f
.	.	.	8AA/	8A\	8c\	.	8c\	-dy	z_niey	.
.	.	.	4GG/	4G\	8.Bn\L	.	8.d\L	by	słu-	.
.	.	.	.	.	16A\Jk	.	16c\Jk	.	.	.
.	.	.	8GG/	8G\	8B\	.	8d\	z nas	-gę	.
=10	=10	=10	=10	=10	=10	=10	=10	=10	=10	=10
*	*	*	*	*^	*^	*	*	*	*	*
2.ryy	.	.	4.C/	4.G\	4.ryy	4.c\	4.ryy	.	4.e\	dał	miał	.
.	.	.	4F\	4F/	[4F\	4A/	[4A\	.	(8A\L	I-	Do-	.
.	.	.	.	.	.	.	.	.	8e\J)	.	.	.
!	!	!	!	!	!	!LO:N:vis=4	!	!	!	!	!	!
.	.	.	8F\	8rAyy	8F\]	8A/	8A\]	.	8d\	-le	.	.
=11	=11	=11	=11	=11	=11	=11	=11	=11	=11	=11	=11	=11
*	*	*	*^	*	*	*	*	*	*^	*	*	*
2.ryy	.	.	4.G\	4.ryy	4.G\	4.ryy	4.G/	4.ryy	.	4.G/	4.ryy	byś	-pó-	.
.	.	.	[4GG/	4GG\	[4F/	4F\	4G/	4G\	.	[4Bn/	4Bn\	go	-ki	.
.	.	.	8GG/]	8GG\	8F/]	8F\	8G/	8G\	.	8B/]	8B\	.	byś	.
*	*	*	*v	*v	*	*	*	*	*	*	*	*	*	*
*	*	*	*	*v	*v	*	*	*	*v	*v	*	*	*
*	*	*	*	*	*v	*v	*	*	*	*	*
=12	=12	=12	=12	=12	=12	=12	=12	=12	=12	=12
2.ryy	.	.	4.C/	[4.E\	[4.G/	.	[4.c\	chciał	chciał	.
.	.	.	8C/	8E\]	8G/]	.	8c\]	.	.	.
.	.	.	8r	8r	8r	.	8r	.	.	.
.	.	.	8r	8r	8r	.	8r	.	.	.
=13||	=13||	=13||	=13||	=13||	=13||	=13||	=13||	=13||	=13||	=13||
!	!	!	!LO:TX:t=P:problem:skreślone nuty w całym takcie	!	!	!	!LO:TX:a:t=Choro	!	!	!
2.ryy	.	.	4AA/	4A\	4c\	.	4c\	Każ-	Byś	.
.	.	.	8AA/	8A\	8c\	.	8c\	-dy	z_niej	.
.	.	.	4GG/	4G\	8.Bn\L	.	8.d\L	by	słu-	.
.	.	.	.	.	16A\Jk	.	16c\Jk	.	.	.
.	.	.	8GG/	8G\	8B\	.	8d\	z_nas	-gę	.
!!LO:PB:g=original
=14	=14	=14	=14	=14	=14	=14	=14	=14	=14	=14
*	*	*	*^	*^	*^	*	*	*	*	*
2.ryy	.	.	4.C/	4ryy	4.G\	4ryy	4.c\	4ryy	.	4.e\	dał	miał	.
.	.	.	.	8ryy	.	8ryy	.	8ryy	.	.	.	.	.
.	.	.	[4F/	4F\	[4F/	4F\	[4A/	4A\	.	(8A\L	I-	Do-	.
.	.	.	.	.	.	.	.	.	.	8e\J)	.	.	.
.	.	.	8F/]	8F\	8F/]	8F\	8A/]	8A\	.	8d\	-le	.	.
=15	=15	=15	=15	=15	=15	=15	=15	=15	=15	=15	=15	=15	=15
*	*	*	*	*	*	*	*	*	*	*^	*	*	*
2.ryy	.	.	4.G\	4ryy	4.G\	4ryy	4G/	4ryy	.	4G/	4G\	byś	-pó-	.
.	.	.	.	8ryy	.	8ryy	8G/	8ryy	.	8G/	8G\	.	-ki	.
!	!	!	!	!	!	!	!	!LO:N:vis=4.	!	!LO:N:vis=4.	!	!	!	!
!	!	!	!	!	!	!	!	!LO:TX:t=P:problem:skreślona ligatura	!	!LO:TX:t=P:problem:skreślona ligatura	!	!	!	!
.	.	.	[4GG/	4GG\	[4F/	4F\	4G/	4G\	.	4Bn/	4Bn\	sam	byś	.
!LO:TX:a:t=Choro	!	!	!	!	!	!	!	!	!	!	!	!	!	!
.	.	.	8GG/]	8GG\	8F/]	8F\	8G/	8G\	.	8B/	8B\	.	.	.
*	*	*	*v	*v	*	*	*v	*v	*	*v	*v	*	*	*
*	*	*	*	*v	*v	*	*	*	*	*	*
=16	=16	=16	=16	=16	=16	=16	=16	=16	=16	=16
4.ryy	.	.	4.C/	4.E\	4.G/	.	4.c\	chciał	chciał	.
!LO:CL:ed	!	!	!	!	!	!	!	!	!	!
*clefF4	*	*	*	*	*	*	*	*	*	*
!	!	!	!LO:TX:t=P:problem:skreślona nuta	!LO:TX:t=P:problem:skreślona nuta	!LO:TX:t=P:problem:skreślona nuta	!	!LO:TX:t=P:problem:skreślona nuta	!	!	!
8B- 8G	I-	pó-	4r	4r	4r	.	4r	.	.	.
8A 8F	-le	-ki	.	.	.	.	.	.	.	.
!	!	!	!	!	!	!	!LO:TX:a:t=[segno]:problem:znak segno nad kreską taktową	!	!	!
8G 8C	byś	byś	8r	8r	8r	.	8r	.	.	.
=17||	=17||	=17||	=17||	=17||	=17||	=17||	=17||	=17||	=17||	=17||
*>B	*>B	*>B	*>B	*>B	*>B	*>B	*>B	*>B	*>B	*>B
!	!	!	!	!	!	!	!LO:TX:a:t=Solo	!	!	!
4A 4F	chciał	.	4F\	4F\	4A\	.	4f\	a-	.	.
!LO:TX:a:t=[segno]:problem:znak segno na kresce taktowej	!	!	!	!	!	!	!	!	!	!
8r	.	.	8F\	8F\	8A\	.	8c\	-le	.	.
.	.	.	.	.	.	.	8qe/	.	.	.
4r	.	.	4F\	4F\	4A\	.	4d\	ześ-	.	.
8r	.	.	8F\	8F\	8A\	.	8c\	-my	.	.
=18	=18	=18	=18	=18	=18	=18	=18	=18	=18	=18
!	!	!	!	!	!LO:TX:t=P:problem:skreślona nuta	!	!LO:TX:t=P:problem:skreślona nuta	!	!	!
2.ryy	.	.	4F\	4F\	4F\	.	4A/	nie	.	.
.	.	.	8F\	8F\	8A\	.	8c\	tak	.	.
.	.	.	4F\	4G#X\	4Bn\	.	4d\	świę-	.	.
!	!	!	!	!LO:TX:t=P:problem:skreślona nuta	!LO:TX:t=P:problem:skreślona nuta	!	!	!	!	!
.	.	.	8F\	8A\	8c\	.	8c\	-ci	.	.
!!LO:LB:g=original
=19	=19	=19	=19	=19	=19	=19	=19	=19	=19	=19
2.ryy	.	.	8C\	8G\	8B-\	.	8c\	Przyim	.	.
.	.	.	8C\	8G\	8B-\	.	8c\	że	.	.
.	.	.	8C\	8F\	8A\	.	8c\	za	.	.
.	.	.	8C\	8E\	8G\	.	8c\	czyn	.	.
.	.	.	8C\	8F\	8A\	.	8c\	dob-	.	.
.	.	.	8C\	8D\	8F\	.	8c\	-re	.	.
=20	=20	=20	=20	=20	=20	=20	=20	=20	=20	=20
*	*	*	*	*	*^	*	*	*	*	*
2.ryy	.	.	4.C/	4.E\	4.G/	4.G\	.	(4c\	chę-	.	.
.	.	.	.	.	.	.	.	16e\LL	.	.	.
.	.	.	.	.	.	.	.	16g\JJ)	.	.	.
.	.	.	4C/	4E\	4G\	4ryy	.	4c\	-ci	.	.
.	.	.	8r	8r	8r	8ryy	.	8r	.	.	.
*	*	*	*	*	*v	*v	*	*	*	*	*
=21	=21	=21	=21	=21	=21	=21	=21	=21	=21	=21
2.ryy	.	.	4D\	4D\	4F/	.	4A\	A	.	.
.	.	.	8D\	8D\	8F/	.	8A\	te	.	.
.	.	.	.	.	.	.	(8qc/	.	.	.
.	.	.	4D\	4D\	4F/	.	4B-\)	chę-	.	.
.	.	.	8D\	8D\	8F/	.	8A\	-ci	.	.
=22	=22	=22	=22	=22	=22	=22	=22	=22	=22	=22
2.ryy	.	.	4D\	4D\	4F/	.	4f\	z_ser-	.	.
.	.	.	8E\	8E\	8G/	.	8c#X\	-ca	.	.
.	.	.	4F\	4F\	4A/	.	4d\	pły-	.	.
.	.	.	8F\	8F\	8A/	.	8A\	-ną	.	.
=23	=23	=23	=23	=23	=23	=23	=23	=23	=23	=23
2.ryy	.	.	8G\	8G\	8G/	.	8G\	Zy-	.	.
.	.	.	8E\	8E\	8G/	.	8c\	-ią	.	.
!	!	!	!	!LO:TX:t=P:problem:nuty skreślone / dopisane ołówkiem	!	!	!	!	!	!
.	.	.	8BBn/	8G\	8G/	.	8d\	da-	.	.
!!LO:LB:g=original
.	.	.	8C/	8G\	8G/	.	8e\	-wną	.	.
.	.	.	8FF/	8F\	8A/	.	8f\	i	.	.
.	.	.	8GG/	8F\	8G/	.	8Bn\	nie	.	.
=24	=24	=24	=24	=24	=24	=24	=24	=24	=24	=24
2.ryy	.	.	4.C/	4.E\	4.G/	.	(4c\	zgi-	.	.
.	.	.	.	.	.	.	16e\LL	.	.	.
.	.	.	.	.	.	.	16d\JJ)	.	.	.
.	.	.	4C/	4E\	4G/	.	4c\	-ną	.	.
.	.	.	8r	8r	8r	.	8r	.	.	.
=25	=25	=25	=25	=25	=25	=25	=25	=25	=25	=25
2.ryy	.	.	4BB-X/	4F\	4B-\	.	4d\	Tyl-	.	.
.	.	.	8BB-/	8F\	8B-\	.	8d\	-ko	.	.
.	.	.	4C/	4F\	4A/	.	4c\	w_kaz-	.	.
.	.	.	8C#X/	8E\	8G/	.	8B-X\	-dy	.	.
=26	=26	=26	=26	=26	=26	=26	=26	=26	=26	=26
2.ryy	.	.	4.D\	4.D\	4.F/	.	4.A\	czas	.	.
.	.	.	4D\	4D\	4A\	.	4f\	Ja-	.	.
.	.	.	8D\	8D\	8A\	.	8f\	-siu	.	.
=27	=27	=27	=27	=27	=27	=27	=27	=27	=27	=27
2.ryy	.	.	4.BB-/	4.D\	4.F/	.	4.G/	Ko-	.	.
.	.	.	4.C/	4.C\	4.E/	.	4.c\	-chaj	.	.
=28	=28	=28	=28	=28	=28	=28	=28	=28	=28	=28
*	*	*	*2\right	*2\right	*	*	*2\right	*	*	*
!	!	!	!LO:TX:t=P:problem:skreślona nuta i pauzy	!LO:TX:t=P:problem:skreślona nuta i pauzy	!LO:TX:t=P:problem:skreślona nuta i pauzy	!	!LO:TX:t=P:problem:skreślona nuta i pauzy	!	!	!
2.ryy	.	.	2.F\	2.F\	2.F/	.	2.A\	nas	.	.
!!LO:PB:g=original
=29||	=29||	=29||	=29||	=29||	=29||	=29||	=29||	=29||	=29||	=29||
!	!	!	!	!	!	!	!LO:TX:a:t=Choro	!	!	!LO:DY:a
2.ryy	.	.	4BB-/	4F\	4B-\	.	4d\	Tyl-	.	f
.	.	.	8BB-/	8F\	8B-\	.	8d\	-ko	.	.
.	.	.	4C/	4F\	4A\	.	4c\	w_kaz-	.	.
.	.	.	8C#X/	8E\	8G\	.	8B-\	-dy	.	.
=30	=30	=30	=30	=30	=30	=30	=30	=30	=30	=30
2.ryy	.	.	4.D/	4.D\	4.F/	.	4.A\	czas	.	.
.	.	.	4D/	4D\	4A\	.	4f\	Ja-	.	.
.	.	.	8D/	8D\	8A\	.	8f\	-siu	.	.
=31	=31	=31	=31	=31	=31	=31	=31	=31	=31	=31
2.ryy	.	.	4.BB-/	4.D\	4.B-\	.	4.g\	Ko-	.	.
.	.	.	4.C/	4.G\	4.B-\	.	4.e\	-chay	.	.
=32||	=32||	=32||	=32||	=32||	=32||	=32||	=32||	=32||	=32||	=32||
!	!	!	!	!	!	!	!LO:TX:a:B:t=Allo..	!	!	!
2.ryy	.	.	4F\	4F\	4A\	.	4f\	nas	.	.
.	.	.	8r	8r	8r	.	8r	.	.	.
.	.	.	4C/	4G\	4B-\	.	4e\	Ko-	.	.
.	.	.	8C/	8G\	8B-\	.	8e\	-chay	.	.
=33	=33	=33	=33	=33	=33	=33	=33	=33	=33	=33
2.ryy	.	.	4F\	4F\	4A\	.	4f\	nas	.	.
.	.	.	8r	8r	8r	.	8r	.	.	.
.	.	.	4F\	4G\	4B-\	.	4e\	Ko-	.	.
.	.	.	8F\	8G\	8B-\	.	8e\	-chay	.	.
!!LO:LB:g=original
=34	=34	=34	=34	=34	=34	=34	=34	=34	=34	=34
2.ryy	.	.	4F\	4F\	4B-\	.	4f\	nas	.	.
.	.	.	8r	8r	8r	.	8r	.	.	.
.	.	.	4BB-/	4F\	4c\	.	4d\	Ja-	.	.
.	.	.	8BB-/	8F\	8c\	.	8d\	-siu	.	.
=35||	=35||	=35||	=35||	=35||	=35||	=35||	=35||	=35||	=35||	=35||
*	*	*	*M3/4	*M3/4	*M3/4	*	*M3/4	*	*	*
!	!	!	!	!	!	!	!LO:TX:a:B:t=Adagio	!	!	!
2.ryy	.	.	2C/	2F\	(4A\	.	(4c\	Ko-	.	.
!	!	!	!	!LO:TX:t=P:problem:skreślona nuta	!	!	!	!	!	!
.	.	.	.	.	4Bn 4G#X\)	.	4d\)	.	.	<
.	.	.	4C/	4G\	4B-X 4Gn\	.	4e\	-chay	.	[[
=36	=36	=36	=36	=36	=36	=36	=36	=36	=36	=36
*	*	*	*	*	*2\right	*	*	*	*	*
!	!	!	!	!	!	!	!	!	!	!LO:DY:rj
2.ryy	.	.	2.F\	2.F\	2.A\	.	2.f\	nas	.	f
==	==	==	==	==	==	==	==	==	==	==
*-	*-	*-	*-	*-	*-	*-	*-	*-	*-	*-
!!!system-decoration: {s1,s2,s3,s4}s5
!!!AIN: 4 empty 1 tenor
!!!ENC: Andrzej Kubiczek
!!!END: 2021-05-06
!!!ENC: Marcin Jachim
!!!END: 2021-04-24
